; generated by PrusaSlicer 2.2.0 on 2020-07-17 at 17:48:13 UTC

; 

; external perimeters extrusion width = 0.25mm
; perimeters extrusion width = 0.25mm
; infill extrusion width = 0.25mm
; solid infill extrusion width = 0.25mm
; top infill extrusion width = 0.25mm
; first layer extrusion width = 0.30mm

M73 P0 R91
M73 Q0 S91
M201 X1000 Y1000 Z200 E5000 ; sets maximum accelerations, mm/sec^2
M203 X200 Y200 Z12 E120 ; sets maximum feedrates, mm/sec
M204 P1250 R1250 T1250 ; sets acceleration (P, T) and retract acceleration (R), mm/sec^2
M205 X8.00 Y8.00 Z0.40 E4.50 ; sets the jerk limits, mm/sec
M205 S0 T0 ; sets the minimum extruding and travel feed rate, mm/sec
M107
M862.3 P "MK3S" ; printer model check
M862.1 P0.25 ; nozzle diameter check
M115 U3.9.0 ; tell printer latest fw version
G90 ; use absolute coordinates
M83 ; extruder relative mode
M104 S215 ; set extruder temp
M140 S60 ; set bed temp
M190 S60 ; wait for bed temp
M109 S215 ; wait for extruder temp
G28 W ; home all without mesh bed level
G80 ; mesh bed leveling
G1 Y-3.0 F1000.0 ; go outside print area
G92 E0.0
G1 X60.0 E9.0 F1000.0 ; intro line
M73 Q0 S91
M73 P0 R91
G1 X100.0 E12.5 F1000.0 ; intro line
G92 E0.0
M221 S95
G21 ; set units to millimeters
G90 ; use absolute coordinates
M83 ; use relative distances for extrusion
M900 K0.06 ; Filament gcode LA 1.5
M900 K30 ; Filament gcode LA 1.0
;BEFORE_LAYER_CHANGE
G92 E0.0
;0.1


G1 E-0.80000 F2100.00000
G1 Z0.600 F10800.000
;AFTER_LAYER_CHANGE
;0.1
G1 X101.969 Y103.477
G1 Z0.100
G1 E0.80000 F2100.00000
M204 S500
G1 F1200.000
G1 X102.469 Y102.047 E0.01754
G1 X103.274 Y100.702 E0.01815
G1 X104.401 Y99.419 E0.01978
G1 X105.796 Y98.260 E0.02101
G1 X107.432 Y97.227 E0.02240
G1 X109.340 Y96.294 E0.02460
G1 X111.552 Y95.457 E0.02738
G1 X113.959 Y94.763 E0.02901
G1 X116.489 Y94.222 E0.02996
G1 X119.351 Y93.803 E0.03349
G1 X122.036 Y93.572 E0.03121
G1 X125.042 Y93.486 E0.03483
G1 X128.042 Y93.577 E0.03475
G1 X130.722 Y93.812 E0.03115
G1 X133.580 Y94.235 E0.03346
G1 X136.057 Y94.767 E0.02933
G1 X138.610 Y95.511 E0.03079
G1 X140.738 Y96.327 E0.02640
G1 X142.660 Y97.279 E0.02483
G1 X144.272 Y98.310 E0.02217
G1 X145.655 Y99.474 E0.02093
G1 X146.768 Y100.760 E0.01969
G1 X147.563 Y102.117 E0.01821
G1 X148.040 Y103.516 E0.01712
G1 X148.208 Y105.011 E0.01742
G1 X148.040 Y106.484 E0.01716
G1 X147.549 Y107.914 E0.01752
G1 X146.741 Y109.278 E0.01835
G1 X146.086 Y110.080 E0.01199
G1 X145.318 Y110.844 E0.01255
G1 X144.440 Y111.566 E0.01316
G1 X143.412 Y112.273 E0.01445
G1 X141.058 Y113.530 E0.03090
G1 X138.407 Y114.557 E0.03292
G1 X135.382 Y115.395 E0.03636
G1 X131.934 Y116.032 E0.04060
G1 X128.340 Y116.405 E0.04184
G1 X124.853 Y116.514 E0.04040
G1 X121.353 Y116.383 E0.04056
G1 X117.638 Y115.969 E0.04329
G1 X114.405 Y115.346 E0.03812
G1 X111.412 Y114.496 E0.03604
G1 X108.738 Y113.437 E0.03331
G1 X106.478 Y112.203 E0.02981
G1 X104.615 Y110.782 E0.02714
G1 X103.868 Y110.029 E0.01228
G1 X103.236 Y109.246 E0.01166
G1 X102.434 Y107.876 E0.01838
G1 X101.950 Y106.439 E0.01757
G1 X101.793 Y104.958 E0.01725
G1 X101.965 Y103.514 E0.01684
M204 S1000
G1 X102.248 Y103.551 F10800.000
M204 S500
G1 F1200.000
G1 X102.262 Y103.450 E0.00118
G1 X102.763 Y102.080 E0.01690
G1 X103.569 Y100.771 E0.01780
G1 X104.651 Y99.565 E0.01877
G1 X106.051 Y98.421 E0.02093
G1 X107.664 Y97.417 E0.02200
G1 X109.601 Y96.485 E0.02489
G1 X111.800 Y95.669 E0.02717
G1 X114.196 Y94.991 E0.02883
G1 X116.806 Y94.449 E0.03087
G1 X119.391 Y94.079 E0.03024
G1 X122.051 Y93.850 E0.03092
G1 X125.038 Y93.765 E0.03461
G1 X128.026 Y93.855 E0.03461
G1 X130.686 Y94.088 E0.03092
G1 X133.531 Y94.509 E0.03331
G1 X135.978 Y95.034 E0.02897
G1 X138.292 Y95.699 E0.02789
G1 X140.453 Y96.508 E0.02672
G1 X142.272 Y97.382 E0.02337
G1 X143.926 Y98.405 E0.02253
G1 X145.324 Y99.541 E0.02086
G1 X146.418 Y100.754 E0.01891
G1 X147.236 Y102.077 E0.01801
G1 X147.734 Y103.435 E0.01675
G1 X147.928 Y104.868 E0.01674
G1 X147.797 Y106.292 E0.01656
G1 X147.337 Y107.706 E0.01722
G1 X146.574 Y109.033 E0.01772
G1 X145.945 Y109.821 E0.01168
G1 X145.188 Y110.585 E0.01245
G1 X143.341 Y111.988 E0.02686
G1 X141.048 Y113.229 E0.03019
G1 X138.320 Y114.292 E0.03391
G1 X135.320 Y115.124 E0.03605
G1 X131.894 Y115.757 E0.04034
G1 X128.321 Y116.127 E0.04160
G1 X124.853 Y116.235 E0.04018
G1 X121.374 Y116.106 E0.04032
G1 X117.679 Y115.693 E0.04305
G1 X114.469 Y115.074 E0.03786
G1 X111.500 Y114.232 E0.03574
G1 X108.858 Y113.186 E0.03290
G1 X106.624 Y111.966 E0.02947
G1 X104.793 Y110.568 E0.02668
G1 X104.028 Y109.790 E0.01264
G1 X103.417 Y109.020 E0.01138
G1 X102.662 Y107.706 E0.01755
G1 X102.208 Y106.315 E0.01694
G1 X102.072 Y104.879 E0.01671
G1 X102.243 Y103.589 E0.01507
M204 S1000
G1 F8640.000
G1 X102.262 Y103.450 E-0.03225
G1 X102.763 Y102.080 E-0.33695
G1 X103.569 Y100.771 E-0.35493
G1 X103.673 Y100.656 E-0.03588
G1 E-0.04000 F2100.00000
G1 Z0.700 F10800.000
G1 X102.356 Y104.726
G1 Z0.100
G1 E0.80000 F2100.00000
M204 S500
G1 F1200.000
G1 X102.571 Y103.369 E0.01591
G1 X103.085 Y102.059 E0.01629
G1 X103.899 Y100.799 E0.01737
G1 X105.012 Y99.610 E0.01886
G1 X106.369 Y98.538 E0.02002
G1 X108.057 Y97.522 E0.02281
G1 X109.995 Y96.623 E0.02475
G1 X112.058 Y95.878 E0.02539
G1 X114.435 Y95.220 E0.02856
G1 X116.858 Y94.723 E0.02865
G1 X119.427 Y94.355 E0.03005
G1 X122.349 Y94.113 E0.03395
G1 X125.038 Y94.043 E0.03116
G1 X127.729 Y94.117 E0.03117
G1 X130.647 Y94.364 E0.03391
G1 X133.211 Y94.735 E0.03001
G1 X135.659 Y95.243 E0.02895
G1 X137.961 Y95.884 E0.02767
G1 X140.161 Y96.687 E0.02712
G1 X142.001 Y97.553 E0.02356
G1 X143.659 Y98.557 E0.02244
G1 X145.008 Y99.628 E0.01995
G1 X146.113 Y100.814 E0.01877
G1 X146.917 Y102.061 E0.01718
G1 X147.437 Y103.398 E0.01661
G1 X147.646 Y104.777 E0.01616
G1 X147.543 Y106.137 E0.01579
G1 X147.136 Y107.473 E0.01618
G1 X146.422 Y108.765 E0.01710
G1 X145.800 Y109.563 E0.01171
G1 X145.058 Y110.326 E0.01233
G1 X143.264 Y111.707 E0.02621
G1 X141.042 Y112.925 E0.02934
G1 X138.406 Y113.970 E0.03284
G1 X135.463 Y114.804 E0.03542
G1 X132.070 Y115.449 E0.04000
G1 X128.634 Y115.826 E0.04004
G1 X124.857 Y115.957 E0.04376
G1 X121.395 Y115.828 E0.04012
G1 X117.720 Y115.418 E0.04282
G1 X114.532 Y114.803 E0.03760
G1 X111.584 Y113.967 E0.03549
G1 X108.968 Y112.929 E0.03259
G1 X106.671 Y111.665 E0.03036
G1 X104.914 Y110.300 E0.02576
G1 X104.181 Y109.542 E0.01222
G1 X103.573 Y108.757 E0.01149
G1 X102.855 Y107.451 E0.01726
G1 X102.452 Y106.110 E0.01622
G1 X102.358 Y104.763 E0.01564
M204 S1000
G1 X102.644 Y104.748 F10800.000
M204 S500
G1 F1200.000
G1 X102.639 Y104.649 E0.00115
G1 X102.872 Y103.327 E0.01554
G1 X103.403 Y102.054 E0.01597
G1 X104.226 Y100.837 E0.01701
G1 X105.334 Y99.695 E0.01844
G1 X106.680 Y98.664 E0.01963
G1 X108.280 Y97.720 E0.02151
G1 X110.112 Y96.876 E0.02335
G1 X112.144 Y96.143 E0.02502
G1 X114.511 Y95.488 E0.02844
G1 X117.176 Y94.951 E0.03148
G1 X119.732 Y94.602 E0.02987
G1 X122.372 Y94.391 E0.03067
G1 X125.039 Y94.322 E0.03089
G1 X127.707 Y94.395 E0.03091
G1 X130.334 Y94.609 E0.03052
G1 X132.888 Y94.962 E0.02986
G1 X135.336 Y95.452 E0.02891
G1 X137.624 Y96.071 E0.02745
G1 X139.705 Y96.802 E0.02554
G1 X141.607 Y97.662 E0.02417
G1 X143.320 Y98.664 E0.02298
G1 X144.686 Y99.712 E0.01994
G1 X145.765 Y100.826 E0.01797
G1 X146.588 Y102.037 E0.01695
G1 X147.123 Y103.312 E0.01600
G1 X147.360 Y104.624 E0.01544
G1 X147.292 Y105.961 E0.01550
G1 X146.916 Y107.275 E0.01583
G1 X146.244 Y108.531 E0.01649
G1 X145.652 Y109.309 E0.01132
G1 X144.958 Y110.038 E0.01166
G1 X144.116 Y110.761 E0.01285
G1 X143.168 Y111.437 E0.01348
G1 X140.928 Y112.671 E0.02962
G1 X138.322 Y113.704 E0.03246
G1 X135.400 Y114.533 E0.03517
G1 X132.029 Y115.174 E0.03973
G1 X128.612 Y115.548 E0.03981
G1 X124.857 Y115.678 E0.04352
G1 X121.416 Y115.550 E0.03988
G1 X117.765 Y115.143 E0.04254
G1 X114.596 Y114.532 E0.03738
G1 X111.673 Y113.703 E0.03518
G1 X109.085 Y112.677 E0.03223
G1 X106.820 Y111.429 E0.02995
G1 X105.053 Y110.048 E0.02597
G1 X104.348 Y109.309 E0.01183
G1 X103.763 Y108.541 E0.01119
G1 X103.089 Y107.288 E0.01647
G1 X102.709 Y105.969 E0.01590
G1 X102.646 Y104.785 E0.01372
M204 S1000
G1 F8640.000
G1 X102.639 Y104.649 E-0.03150
G1 X102.872 Y103.327 E-0.30990
G1 X103.403 Y102.054 E-0.31852
G1 X103.645 Y101.695 E-0.10008
G1 E-0.04000 F2100.00000
G1 Z0.700 F10800.000
G1 X100.311 Y105.017
G1 Z0.100
G1 E0.80000 F2100.00000
M204 S500
G1 F1200.000
G1 X100.377 Y103.969 E0.01216
G1 X100.568 Y102.971 E0.01177
G1 X100.875 Y102.008 E0.01171
G1 X101.282 Y101.108 E0.01144
G1 X101.776 Y100.263 E0.01134
G1 X102.349 Y99.473 E0.01130
G1 X102.992 Y98.735 E0.01133
G1 X103.719 Y98.031 E0.01172
G1 X104.494 Y97.385 E0.01169
G1 X105.292 Y96.805 E0.01143
G1 X106.124 Y96.272 E0.01144
G1 X107.033 Y95.758 E0.01209
G1 X107.970 Y95.287 E0.01215
G1 X108.938 Y94.854 E0.01227
G1 X109.918 Y94.463 E0.01222
G1 X110.946 Y94.097 E0.01264
G1 X111.991 Y93.766 E0.01269
G1 X113.075 Y93.460 E0.01305
G1 X114.172 Y93.188 E0.01309
G1 X115.349 Y92.932 E0.01395
G1 X116.513 Y92.713 E0.01372
G1 X117.701 Y92.524 E0.01393
G1 X118.895 Y92.365 E0.01395
G1 X120.099 Y92.235 E0.01402
G1 X121.301 Y92.135 E0.01396
G1 X122.538 Y92.062 E0.01435
G1 X123.802 Y92.018 E0.01464
G1 X125.068 Y92.004 E0.01467
G1 X126.310 Y92.021 E0.01439
G1 X127.520 Y92.065 E0.01402
G1 X128.732 Y92.137 E0.01407
G1 X129.969 Y92.242 E0.01438
G1 X131.180 Y92.374 E0.01410
G1 X132.387 Y92.537 E0.01411
G1 X133.542 Y92.723 E0.01355
G1 X134.700 Y92.942 E0.01365
G1 X135.841 Y93.191 E0.01352
G1 X136.940 Y93.464 E0.01311
G1 X138.028 Y93.771 E0.01310
G1 X139.081 Y94.106 E0.01279
G1 X140.131 Y94.482 E0.01292
G1 X141.148 Y94.891 E0.01269
G1 X142.152 Y95.346 E0.01277
G1 X143.076 Y95.816 E0.01200
G1 X143.971 Y96.330 E0.01196
G1 X144.797 Y96.866 E0.01140
G1 X145.591 Y97.451 E0.01143
G1 X146.357 Y98.100 E0.01163
G1 X147.074 Y98.806 E0.01166
G1 X147.719 Y99.559 E0.01147
G1 X148.285 Y100.357 E0.01134
G1 X148.770 Y101.209 E0.01135
G1 X149.159 Y102.100 E0.01126
G1 X149.449 Y103.035 E0.01134
G1 X149.630 Y104.020 E0.01160
G1 X149.689 Y105.025 E0.01166
G1 X149.625 Y106.018 E0.01152
G1 X149.421 Y107.073 E0.01244
G1 X149.120 Y108.005 E0.01135
G1 X148.714 Y108.900 E0.01138
G1 X148.309 Y109.606 E0.00943
G1 X147.849 Y110.272 E0.00938
G1 X147.368 Y110.868 E0.00887
G1 X146.911 Y111.365 E0.00781
G1 X146.428 Y111.836 E0.00782
G1 X145.816 Y112.368 E0.00938
G1 X145.223 Y112.830 E0.00871
G1 X144.605 Y113.265 E0.00874
G1 X143.364 Y114.025 E0.01685
G1 X142.037 Y114.710 E0.01730
G1 X140.557 Y115.353 E0.01869
G1 X139.043 Y115.907 E0.01866
G1 X137.579 Y116.360 E0.01775
G1 X135.889 Y116.798 E0.02022
G1 X134.134 Y117.170 E0.02078
G1 X132.325 Y117.473 E0.02123
G1 X130.545 Y117.700 E0.02079
G1 X128.736 Y117.862 E0.02103
G1 X126.692 Y117.969 E0.02371
G1 X124.882 Y117.996 E0.02096
G1 X123.045 Y117.960 E0.02128
G1 X121.216 Y117.859 E0.02122
G1 X119.434 Y117.697 E0.02071
G1 X117.367 Y117.426 E0.02415
G1 X115.694 Y117.137 E0.01967
G1 X114.012 Y116.775 E0.01992
G1 X112.372 Y116.346 E0.01963
G1 X110.745 Y115.835 E0.01975
G1 X109.250 Y115.275 E0.01848
G1 X107.796 Y114.630 E0.01843
G1 X106.500 Y113.949 E0.01695
G1 X105.285 Y113.190 E0.01659
G1 X104.646 Y112.732 E0.00911
G1 X104.080 Y112.282 E0.00837
G1 X103.534 Y111.801 E0.00842
G1 X103.057 Y111.332 E0.00776
G1 X102.599 Y110.830 E0.00787
G1 X102.132 Y110.246 E0.00865
G1 X101.684 Y109.593 E0.00917
G1 X101.268 Y108.865 E0.00971
G1 X100.867 Y107.970 E0.01137
G1 X100.568 Y107.030 E0.01142
G1 X100.378 Y106.038 E0.01169
G1 X100.313 Y105.054 E0.01142
M204 S1000
G1 X100.590 Y105.036 F10800.000
M204 S500
G1 F1200.000
G1 X100.654 Y103.995 E0.01208
G1 X100.835 Y103.048 E0.01117
G1 X101.133 Y102.115 E0.01133
G1 X101.526 Y101.242 E0.01109
G1 X102.013 Y100.409 E0.01117
G1 X102.571 Y99.642 E0.01099
G1 X103.191 Y98.931 E0.01092
G1 X103.901 Y98.241 E0.01147
G1 X104.669 Y97.602 E0.01157
G1 X105.452 Y97.033 E0.01122
G1 X106.265 Y96.513 E0.01117
G1 X107.161 Y96.005 E0.01193
G1 X108.087 Y95.540 E0.01200
G1 X109.044 Y95.112 E0.01213
G1 X110.014 Y94.725 E0.01210
G1 X111.033 Y94.362 E0.01253
G1 X112.068 Y94.033 E0.01258
G1 X113.144 Y93.730 E0.01294
G1 X114.233 Y93.459 E0.01299
G1 X115.402 Y93.205 E0.01385
G1 X116.559 Y92.988 E0.01363
G1 X117.740 Y92.799 E0.01385
G1 X118.927 Y92.641 E0.01386
G1 X120.124 Y92.512 E0.01394
G1 X121.319 Y92.413 E0.01389
G1 X122.552 Y92.340 E0.01431
G1 X123.810 Y92.296 E0.01457
G1 X125.066 Y92.283 E0.01455
G1 X126.302 Y92.299 E0.01431
G1 X127.508 Y92.343 E0.01398
G1 X128.711 Y92.415 E0.01395
G1 X129.944 Y92.519 E0.01434
G1 X131.148 Y92.650 E0.01402
G1 X132.348 Y92.812 E0.01402
G1 X133.496 Y92.998 E0.01347
G1 X134.647 Y93.215 E0.01356
G1 X135.780 Y93.462 E0.01343
G1 X136.870 Y93.734 E0.01301
G1 X137.950 Y94.039 E0.01300
G1 X138.994 Y94.371 E0.01268
G1 X140.034 Y94.743 E0.01280
G1 X141.041 Y95.148 E0.01257
G1 X142.035 Y95.598 E0.01263
G1 X142.946 Y96.063 E0.01185
G1 X143.829 Y96.570 E0.01179
G1 X144.635 Y97.092 E0.01112
G1 X145.415 Y97.667 E0.01121
G1 X146.173 Y98.309 E0.01151
G1 X146.874 Y99.000 E0.01141
G1 X147.495 Y99.725 E0.01105
G1 X148.046 Y100.501 E0.01102
G1 X148.524 Y101.340 E0.01119
G1 X148.901 Y102.204 E0.01091
G1 X149.180 Y103.109 E0.01097
G1 X149.352 Y104.045 E0.01102
G1 X149.411 Y105.015 E0.01126
G1 X149.348 Y105.991 E0.01132
G1 X149.150 Y107.011 E0.01203
G1 X148.857 Y107.911 E0.01096
G1 X148.463 Y108.778 E0.01103
G1 X148.070 Y109.462 E0.00913
G1 X147.623 Y110.109 E0.00912
G1 X147.154 Y110.690 E0.00864
G1 X146.709 Y111.174 E0.00762
G1 X146.236 Y111.634 E0.00764
G1 X145.642 Y112.151 E0.00912
G1 X145.060 Y112.605 E0.00855
G1 X144.449 Y113.034 E0.00865
G1 X143.223 Y113.785 E0.01664
G1 X141.921 Y114.456 E0.01696
G1 X140.457 Y115.093 E0.01849
G1 X138.957 Y115.642 E0.01849
G1 X137.506 Y116.091 E0.01759
G1 X135.828 Y116.527 E0.02008
G1 X134.085 Y116.895 E0.02064
G1 X132.287 Y117.197 E0.02110
G1 X130.517 Y117.422 E0.02066
G1 X128.719 Y117.584 E0.02091
G1 X126.680 Y117.690 E0.02365
G1 X124.881 Y117.717 E0.02084
G1 X123.053 Y117.681 E0.02117
G1 X121.238 Y117.581 E0.02105
G1 X119.468 Y117.421 E0.02059
G1 X117.411 Y117.151 E0.02401
G1 X115.749 Y116.864 E0.01953
G1 X114.079 Y116.505 E0.01978
G1 X112.452 Y116.079 E0.01948
G1 X110.832 Y115.570 E0.01966
G1 X109.360 Y115.019 E0.01820
G1 X107.913 Y114.377 E0.01833
G1 X106.643 Y113.710 E0.01661
G1 X105.444 Y112.961 E0.01637
G1 X104.811 Y112.508 E0.00902
G1 X104.256 Y112.067 E0.00821
G1 X103.727 Y111.600 E0.00817
G1 X103.260 Y111.141 E0.00758
G1 X102.814 Y110.652 E0.00767
G1 X102.359 Y110.084 E0.00842
G1 X101.922 Y109.450 E0.00891
G1 X101.519 Y108.745 E0.00941
G1 X101.130 Y107.877 E0.01101
G1 X100.840 Y106.969 E0.01104
G1 X100.655 Y106.011 E0.01130
G1 X100.593 Y105.073 E0.01088
M204 S1000
G1 X100.870 Y105.055 F10800.000
M204 S500
G1 F1200.000
G1 X100.929 Y104.039 E0.01179
G1 X101.107 Y103.108 E0.01097
G1 X101.396 Y102.208 E0.01095
G1 X101.776 Y101.363 E0.01073
G1 X102.250 Y100.556 E0.01083
G1 X102.792 Y99.811 E0.01068
G1 X103.397 Y99.119 E0.01064
G1 X104.091 Y98.445 E0.01121
G1 X104.843 Y97.819 E0.01133
G1 X105.613 Y97.260 E0.01101
G1 X106.412 Y96.749 E0.01099
G1 X107.295 Y96.249 E0.01176
G1 X108.204 Y95.793 E0.01177
G1 X109.150 Y95.370 E0.01200
G1 X110.110 Y94.986 E0.01197
G1 X111.120 Y94.626 E0.01241
G1 X112.146 Y94.301 E0.01247
G1 X113.214 Y94.000 E0.01284
G1 X114.294 Y93.731 E0.01290
G1 X115.455 Y93.479 E0.01376
G1 X116.605 Y93.263 E0.01354
G1 X117.782 Y93.075 E0.01381
G1 X118.962 Y92.918 E0.01378
G1 X120.149 Y92.790 E0.01383
G1 X121.340 Y92.691 E0.01385
G1 X122.567 Y92.618 E0.01423
G1 X123.814 Y92.575 E0.01445
G1 X125.064 Y92.561 E0.01447
G1 X126.293 Y92.577 E0.01424
G1 X127.493 Y92.621 E0.01390
G1 X128.692 Y92.693 E0.01391
G1 X129.919 Y92.796 E0.01426
G1 X131.112 Y92.927 E0.01390
G1 X132.305 Y93.088 E0.01394
G1 X133.450 Y93.272 E0.01342
G1 X134.593 Y93.488 E0.01347
G1 X135.718 Y93.734 E0.01334
G1 X136.801 Y94.004 E0.01292
G1 X137.873 Y94.306 E0.01290
G1 X138.907 Y94.635 E0.01257
G1 X139.938 Y95.004 E0.01268
G1 X140.934 Y95.405 E0.01244
G1 X141.917 Y95.850 E0.01249
G1 X142.811 Y96.306 E0.01162
G1 X143.681 Y96.806 E0.01162
G1 X144.473 Y97.319 E0.01094
G1 X145.239 Y97.882 E0.01100
G1 X145.982 Y98.511 E0.01127
G1 X146.667 Y99.186 E0.01114
